flaticon/technology/smartphone.svg

<svg xmlns="http://www.w3.org/2000/svg" width="32" height="32" viewBox="0 0 24 24">
    <path d="M7.601562 6C7.703125 6 7.804688 5.960938 7.882812 5.882812L9.484375 4.28125C9.640625 4.125 9.640625 3.875 9.484375 3.71875 9.328125 3.5625 9.074219 3.5625 8.917969 3.71875L7.316406 5.316406C7.160156 5.472656 7.160156 5.726562 7.316406 5.882812 7.394531 5.960938 7.496094 6 7.601562 6zM7.601562 8C7.703125 8 7.804688 7.960938 7.882812 7.882812L8.683594 7.082031C8.839844 6.925781 8.839844 6.671875 8.683594 6.515625 8.527344 6.359375 8.273438 6.359375 8.117188 6.515625L7.316406 7.316406C7.160156 7.472656 7.160156 7.726562 7.316406 7.882812 7.394531 7.960938 7.496094 8 7.601562 8zM8.914062 5.714844C8.84375 5.792969 8.800781 5.890625 8.800781 6 8.800781 6.105469 8.84375 6.207031 8.914062 6.285156 8.992188 6.355469 9.097656 6.398438 9.199219 6.398438 9.304688 6.398438 9.40625 6.355469 9.484375 6.285156 9.554688 6.207031 9.601562 6.105469 9.601562 6 9.601562 5.894531 9.554688 5.792969 9.484375 5.714844 9.332031 5.566406 9.0625 5.566406 8.914062 5.714844zM9.71875 5.484375C9.796875 5.5625 9.898438 5.601562 10 5.601562 10.101562 5.601562 10.203125 5.5625 10.28125 5.484375L11.484375 4.28125C11.640625 4.125 11.640625 3.875 11.484375 3.71875 11.328125 3.5625 11.074219 3.5625 10.917969 3.71875L9.71875 4.917969C9.5625 5.074219 9.5625 5.328125 9.71875 5.484375zM10.917969 5.71875L7.316406 9.316406C7.160156 9.472656 7.160156 9.726562 7.316406 9.882812 7.394531 9.960938 7.496094 10 7.601562 10 7.703125 10 7.804688 9.960938 7.882812 9.882812L11.484375 6.28125C11.640625 6.125 11.640625 5.875 11.484375 5.71875 11.328125 5.5625 11.074219 5.5625 10.917969 5.71875zM11.714844 4.914062C11.644531 4.992188 11.601562 5.097656 11.601562 5.199219 11.601562 5.304688 11.644531 5.40625 11.714844 5.484375 11.792969 5.554688 11.894531 5.601562 12 5.601562 12.105469 5.601562 12.207031 5.554688 12.285156 5.484375 12.355469 5.40625 12.398438 5.304688 12.398438 5.199219 12.398438 5.097656 12.355469 4.992188 12.285156 4.914062 12.136719 4.769531 11.863281 4.769531 11.714844 4.914062zM12.917969 3.71875L12.515625 4.117188C12.359375 4.273438 12.359375 4.527344 12.515625 4.683594 12.59375 4.761719 12.699219 4.800781 12.800781 4.800781 12.902344 4.800781 13.003906 4.761719 13.082031 4.683594L13.484375 4.28125C13.640625 4.125 13.640625 3.875 13.484375 3.71875 13.328125 3.5625 13.074219 3.5625 12.917969 3.71875zM12.917969 3.71875"/>
    <path d="M 16.503906 0 L 7.496094 0 C 6.011719 0 4.800781 1.210938 4.800781 2.695312 L 4.800781 21.304688 C 4.800781 22.789062 6.011719 24 7.496094 24 L 16.503906 24 C 17.988281 24 19.199219 22.789062 19.199219 21.304688 L 19.199219 2.695312 C 19.199219 1.210938 17.988281 0 16.503906 0 Z M 18.398438 21.304688 C 18.398438 22.347656 17.546875 23.199219 16.503906 23.199219 L 7.496094 23.199219 C 6.453125 23.199219 5.601562 22.347656 5.601562 21.304688 L 5.601562 2.695312 C 5.601562 1.652344 6.453125 0.800781 7.496094 0.800781 L 16.503906 0.800781 C 17.546875 0.800781 18.398438 1.652344 18.398438 2.695312 Z M 18.398438 21.304688"/>
    <path d="M6 20.398438L18 20.398438 18 2.398438 6 2.398438zM6.800781 3.199219L17.199219 3.199219 17.199219 19.601562 6.800781 19.601562zM10.800781 2L13.199219 2C13.421875 2 13.601562 1.820312 13.601562 1.601562 13.601562 1.378906 13.421875 1.199219 13.199219 1.199219L10.800781 1.199219C10.578125 1.199219 10.398438 1.378906 10.398438 1.601562 10.398438 1.820312 10.578125 2 10.800781 2zM16.398438 2L16.800781 2C17.019531 2 17.199219 1.820312 17.199219 1.601562 17.199219 1.378906 17.019531 1.199219 16.800781 1.199219L16.398438 1.199219C16.179688 1.199219 16 1.378906 16 1.601562 16 1.820312 16.179688 2 16.398438 2zM14.800781 2L15.199219 2C15.421875 2 15.601562 1.820312 15.601562 1.601562 15.601562 1.378906 15.421875 1.199219 15.199219 1.199219L14.800781 1.199219C14.578125 1.199219 14.398438 1.378906 14.398438 1.601562 14.398438 1.820312 14.578125 2 14.800781 2zM13 20.800781L11 20.800781C10.449219 20.800781 10 21.25 10 21.800781 10 22.351562 10.449219 22.800781 11 22.800781L13 22.800781C13.550781 22.800781 14 22.351562 14 21.800781 14 21.25 13.550781 20.800781 13 20.800781zM13 22L11 22C10.890625 22 10.800781 21.910156 10.800781 21.800781 10.800781 21.691406 10.890625 21.601562 11 21.601562L13 21.601562C13.109375 21.601562 13.199219 21.691406 13.199219 21.800781 13.199219 21.910156 13.109375 22 13 22zM13 22"/>
</svg>

<svg xmlns="http://www.w3.org/2000/svg" width="32" height="32" viewBox="0 0 24 24">
    <path d="M7.602 6c.101 0 .203-.04.28-.117L9.485 4.28a.396.396 0 0 0 0-.562.4.4 0 0 0-.566 0L7.316 5.316A.4.4 0 0 0 7.602 6zm0 0M7.602 8c.101 0 .203-.04.28-.117l.802-.801a.4.4 0 0 0-.567-.566l-.8.8A.4.4 0 0 0 7.601 8zm0 0M8.914 5.715A.423.423 0 0 0 8.801 6a.43.43 0 0 0 .113.285c.078.07.184.113.285.113a.43.43 0 0 0 .285-.113A.434.434 0 0 0 9.602 6a.434.434 0 0 0-.118-.285.42.42 0 0 0-.57 0zm0 0M9.719 5.484a.396.396 0 0 0 .562 0l1.203-1.203a.396.396 0 0 0 0-.562.4.4 0 0 0-.566 0l-1.2 1.199a.4.4 0 0 0 0 .566zm0 0M10.918 5.719L7.316 9.316a.4.4 0 0 0 .567.567l3.601-3.602a.396.396 0 0 0 0-.562.4.4 0 0 0-.566 0zm0 0M11.715 4.914a.438.438 0 0 0-.113.285.43.43 0 0 0 .113.285c.078.07.18.118.285.118a.434.434 0 0 0 .285-.118.43.43 0 0 0 .113-.285.438.438 0 0 0-.113-.285.43.43 0 0 0-.57 0zm0 0M12.918 3.719l-.402.398a.4.4 0 0 0 .566.567l.402-.403a.396.396 0 0 0 0-.562.4.4 0 0 0-.566 0zm0 0"/>
    <path d="M16.504 0H7.496a2.7 2.7 0 0 0-2.695 2.695v18.61A2.7 2.7 0 0 0 7.496 24h9.008a2.7 2.7 0 0 0 2.695-2.695V2.695A2.7 2.7 0 0 0 16.504 0zm1.894 21.305a1.899 1.899 0 0 1-1.894 1.894H7.496a1.899 1.899 0 0 1-1.894-1.894V2.695c0-1.043.851-1.894 1.894-1.894h9.008c1.043 0 1.894.851 1.894 1.894zm0 0"/>
    <path d="M6 20.398h12v-18H6zM6.8 3.2h10.4v16.403H6.8zm0 0M10.8 2h2.4a.401.401 0 1 0 0-.8h-2.4a.401.401 0 0 0 0 .8zm0 0M16.398 2h.403a.4.4 0 0 0 0-.8h-.403a.401.401 0 0 0 0 .8zm0 0M14.8 2h.4a.401.401 0 1 0 0-.8h-.4a.401.401 0 0 0 0 .8zm0 0M13 20.8h-2c-.55 0-1 .45-1 1 0 .552.45 1 1 1h2c.55 0 1-.448 1-1 0-.55-.45-1-1-1zm0 1.2h-2a.2.2 0 0 1-.2-.2c0-.109.09-.198.2-.198h2c.11 0 .2.09.2.199A.2.2 0 0 1 13 22zm0 0"/>
</svg>
